Numix-Light-GalliumOS/22/status/renamed-brasero.svg

<?xml version="1.0" encoding="UTF-8" standalone="no"?>
<svg
   xmlns:dc="http://purl.org/dc/elements/1.1/"
   xmlns:cc="http://creativecommons.org/ns#"
   xmlns:rdf="http://www.w3.org/1999/02/22-rdf-syntax-ns#"
   xmlns:svg="http://www.w3.org/2000/svg"
   xmlns="http://www.w3.org/2000/svg"
   xmlns:sodipodi="http://sodipodi.sourceforge.net/DTD/sodipodi-0.dtd"
   xmlns:inkscape="http://www.inkscape.org/namespaces/inkscape"
   width="22"
   viewBox="0 0 6.208889 6.208889"
   height="22"
   id="svg2"
   version="1.1"
   inkscape:version="0.91 r"
   sodipodi:docname="brasero.svg">
  <metadata
     id="metadata399">
    <rdf:RDF>
      <cc:Work
         rdf:about="">
        <dc:format>image/svg+xml</dc:format>
        <dc:type
           rdf:resource="http://purl.org/dc/dcmitype/StillImage" />
        <dc:title />
      </cc:Work>
    </rdf:RDF>
  </metadata>
  <sodipodi:namedview
     pagecolor="#ffffff"
     bordercolor="#666666"
     borderopacity="1"
     objecttolerance="10"
     gridtolerance="10"
     guidetolerance="10"
     inkscape:pageopacity="0"
     inkscape:pageshadow="2"
     inkscape:window-width="1280"
     inkscape:window-height="998"
     id="namedview397"
     showgrid="true"
     inkscape:zoom="40.454545"
     inkscape:cx="6.8719101"
     inkscape:cy="11"
     inkscape:window-x="0"
     inkscape:window-y="0"
     inkscape:window-maximized="1"
     inkscape:current-layer="svg2"
     inkscape:object-paths="true"
     inkscape:snap-intersection-paths="true"
     inkscape:object-nodes="true"
     inkscape:snap-smooth-nodes="true"
     inkscape:snap-midpoints="true"
     inkscape:snap-object-midpoints="true"
     inkscape:snap-center="true">
    <inkscape:grid
       type="xygrid"
       id="grid3000" />
  </sodipodi:namedview>
  <defs
     id="defs4" />
  <path
     style="fill:#353535;fill-opacity:1"
     d="m 3.1044445,0.84666664 c -1.2467911,0 -2.25777781,1.01098676 -2.25777781,2.25777786 0,0.8925893 0.51811781,1.6620262 1.27000001,2.0284723 0.035804,0.01745 0.069,0.037336 0.1058334,0.052917 0.061184,0.026893 0.1262424,0.049476 0.1940277,0.070556 0.00529,0.00169 0.012337,-0.00165 0.017639,0 0.049264,0.014862 0.097246,0.03244 0.1499306,0.044097 0.021173,0.00498 0.040338,0.013259 0.061736,0.017639 0.038609,0.0074 0.074304,0.011964 0.1146528,0.017639 0.063199,0.00966 0.1292194,0.013337 0.1940278,0.017639 0.066812,0.0045 0.1406889,0.00882 0.2116666,0.00882 l 0.079375,0 c 0.029657,0 0.058609,-0.00707 0.088195,-0.00882 0.077919,-0.00462 0.1530175,-0.019431 0.2293056,-0.035278 0.1221042,-0.025364 0.2403096,-0.065075 0.3527777,-0.1146528 0.022295,-0.0086 0.048609,-0.00836 0.070556,-0.017639 0.0091,-0.00444 0.017458,-0.013066 0.026458,-0.017639 0.7946732,-0.3495892 1.3493751,-1.1399909 1.3493751,-2.06375 0,-1.2467911 -1.0109869,-2.25777786 -2.2577779,-2.25777786 z m 0,0.28222226 c 1.0909419,0 1.9755556,0.8846134 1.9755556,1.9755556 0,0.5960776 -0.2703731,1.128244 -0.6879166,1.4904861 -0.02807,0.00598 -0.057118,0.017628 -0.088195,0.017639 C 4.824869,4.1824439 4.9358475,3.5372413 4.4714585,2.9192361 4.5057936,3.3222151 4.2823013,3.5313598 4.0922223,3.6688889 4.3898133,3.101307 4.3941394,2.4569993 3.8100001,1.8873611 3.8565741,2.0269465 3.8949196,2.139049 3.8629168,2.2665972 3.8937436,2.1160968 3.460767,1.4368435 2.8310417,1.1465278 2.9203738,1.1341617 3.0117145,1.1288889 3.1044445,1.1288889 z m -0.3175,0.026458 c 0.422137,0.7213478 0.016964,0.8612411 -0.070556,1.4463889 0.043663,-0.033779 0.080738,-0.066404 0.1322916,-0.088194 0.077187,-0.032625 0.1666413,-0.052917 0.2557639,-0.052917 0.089123,0 0.1785778,0.020291 0.2557639,0.052917 0.077187,0.032625 0.144493,0.073937 0.2028473,0.1322917 0.058354,0.058354 0.099666,0.1256605 0.1322916,0.2028472 0.032625,0.077187 0.052917,0.1666412 0.052917,0.2557639 0,0.089123 -0.020291,0.1785769 -0.052917,0.2557639 -0.032625,0.077187 -0.073937,0.144493 -0.1322916,0.2028472 -0.058354,0.058354 -0.1256601,0.099666 -0.2028473,0.1322917 -0.077187,0.032625 -0.1666406,0.052917 -0.2557639,0.052917 -0.089123,0 -0.1785772,-0.020291 -0.2557639,-0.052917 C 2.771494,3.6627215 2.7041872,3.6214098 2.6458334,3.5630556 2.5874791,3.5047014 2.5461672,3.437395 2.5135417,3.3602084 2.4809166,3.2830214 2.4606251,3.1935672 2.4606251,3.1044445 c 0,-0.089123 0.020291,-0.1785772 0.052917,-0.2557639 0.013421,-0.031749 0.034801,-0.050468 0.052917,-0.079375 C 2.5055222,2.6789873 2.4215351,2.6064092 2.240139,2.5664584 2.6701917,3.3190508 1.7272978,3.2342204 1.8168056,3.8893751 1.7011454,3.8573846 1.5968934,3.6442066 1.6845139,3.3778473 1.3818675,3.7517198 1.4959446,4.069544 1.7109723,4.3920834 1.4959457,4.1770574 1.4921655,4.288772 1.3846528,3.9863889 1.38693,4.0294823 1.3966738,4.0680322 1.4022917,4.1098612 1.2279213,3.8154018 1.1288889,3.4714118 1.1288889,3.1044445 c 0,-0.9826662 0.7182991,-1.7969478 1.6580556,-1.9490973 z m 0.3175,1.6227778 c -0.089123,0 -0.1709516,0.03866 -0.2293055,0.097014 -0.058352,0.058354 -0.097014,0.1401826 -0.097014,0.2293056 0,0.089123 0.03866,0.1709516 0.097014,0.2293055 0.058354,0.058354 0.1401826,0.097014 0.2293055,0.097014 0.089123,0 0.1709516,-0.03866 0.2293056,-0.097014 0.058352,-0.058354 0.097014,-0.1401826 0.097014,-0.2293055 0,-0.089123 -0.03866,-0.1709516 -0.097014,-0.2293056 C 3.2753961,2.8167849 3.1935675,2.778125 3.1044445,2.778125 z"
     id="path391-8"
     inkscape:connector-curvature="0" />
  <path
     inkscape:connector-curvature="0"
     id="path3806"
     d="m 3.1044444,2.6407941 c 0.089123,0 0.1701116,0.03572 0.2284655,0.094074 0.058354,0.058354 0.094074,0.1393428 0.094074,0.2284655 0,0.089123 -0.035722,0.1701114 -0.094074,0.2284656 -0.058354,0.058354 -0.1393424,0.094074 -0.2284655,0.094074 -0.089123,0 -0.1701111,-0.03572 -0.2284654,-0.094074 C 2.817625,3.1334452 2.781905,3.0524564 2.781905,2.9633336 c 0,-0.089123 0.035722,-0.1701113 0.094074,-0.2284655 0.058354,-0.058354 0.1393428,-0.094074 0.2284654,-0.094074 z"
     style="opacity:0;fill:#000000;fill-opacity:1;fill-rule:nonzero;stroke:none" />
  <path
     id="path3808"
     d="M 2.7583863,0.97433972 C 3.2280128,1.738973 2.8041673,1.8612588 2.7147093,2.4593656 c 0.043663,-0.033779 0.086198,-0.068924 0.1377512,-0.090714 0.077187,-0.032625 0.1628613,-0.050397 0.2519839,-0.050397 0.089123,0 0.1747977,0.017771 0.2519839,0.050397 0.077187,0.032625 0.1465931,0.079397 0.2049474,0.1377513 0.058354,0.058354 0.1051257,0.1277603 0.1377512,0.204947 0.032625,0.077187 0.050397,0.1628613 0.050397,0.251984 0,0.089123 -0.017771,0.1747973 -0.050397,0.2519841 -0.032625,0.077187 -0.079397,0.1465928 -0.1377512,0.204947 -0.058354,0.058354 -0.1277603,0.105126 -0.2049474,0.1377513 -0.077187,0.032625 -0.1628608,0.050397 -0.2519839,0.050397 -0.089123,0 -0.1747972,-0.017771 -0.2519839,-0.050397 C 2.7752739,3.5253907 2.7058674,3.4786189 2.6475136,3.4202647 2.5891593,3.3619105 2.5423875,3.2925044 2.509762,3.2153177 2.4771369,3.1381309 2.4593654,3.0524564 2.4593654,2.9633336 c 0,-0.089123 0.017771,-0.1747973 0.050397,-0.251984 0.013421,-0.031749 0.039,-0.055088 0.057116,-0.083995 C 2.5059422,2.5370363 2.425735,2.4657185 2.2443389,2.4257677 2.6743916,3.1783601 1.7314979,3.0943694 1.8210057,3.7495239 1.7053455,3.7175334 1.5989936,3.5018359 1.6866141,3.2354764 1.3839677,3.609349 1.4917464,3.9309526 1.7067741,4.2534919 1.4917475,4.0384658 1.4917471,4.145981 1.3842344,3.8435979 1.4259597,4.6332052 2.0292768,5.2211105 3.1649218,5.2211105 l 0.080635,0 c 0.7117753,0 1.4157019,-0.5159994 1.4917453,-1.0314545 C 4.6372233,4.337886 4.5023304,4.4684455 4.3038897,4.4685183 4.8248697,4.0383927 4.9329085,3.3931906 4.4685194,2.7751855 4.5028546,3.1781644 4.2856615,3.3936086 4.0955827,3.5311377 4.3931735,2.9635558 4.3941392,2.3167289 3.81,1.7470907 3.856574,1.8866761 3.8924,1.9958387 3.860397,2.1233869 3.8924003,1.9671435 3.4275575,1.2437377 2.7583863,0.97433972 z"
     style="opacity:0;fill:#000000;fill-opacity:1;fill-rule:nonzero;stroke:none"
     inkscape:connector-curvature="0" />
</svg>

<svg xmlns="http://www.w3.org/2000/svg" width="22" viewBox="0 0 6.208889 6.208889" height="22">
 <path d="m 3.104 0.847 c -1.247 0 -2.258 1.01 -2.258 2.258 0 0.893 0.518 1.662 1.27 2.028 0.036 0.017 0.069 0.037 0.106 0.053 0.061 0.027 0.126 0.049 0.194 0.071 0.005 0.002 0.012 -0.002 0.018 0 0.049 0.015 0.097 0.032 0.15 0.044 0.021 0.005 0.04 0.013 0.062 0.018 0.039 0.007 0.074 0.012 0.115 0.018 0.063 0.01 0.129 0.013 0.194 0.018 0.067 0.005 0.141 0.009 0.212 0.009 l 0.079 0 c 0.03 0 0.059 -0.007 0.088 -0.009 0.078 -0.005 0.153 -0.019 0.229 -0.035 0.122 -0.025 0.24 -0.065 0.353 -0.115 0.022 -0.009 0.049 -0.008 0.071 -0.018 0.009 -0.004 0.017 -0.013 0.026 -0.018 0.795 -0.35 1.349 -1.14 1.349 -2.064 0 -1.247 -1.01 -2.258 -2.258 -2.258 z m 0 0.282 c 1.091 0 1.976 0.885 1.976 1.976 0 0.596 -0.27 1.128 -0.688 1.49 -0.028 0.006 -0.057 0.018 -0.088 0.018 c 0.521 -0.43 0.632 -1.075 0.168 -1.693 0.034 0.403 -0.189 0.612 -0.379 0.75 0.298 -0.568 0.302 -1.212 -0.282 -1.782 0.047 0.14 0.085 0.252 0.053 0.379 0.031 -0.151 -0.402 -0.83 -1.032 -1.12 0.089 -0.012 0.181 -0.018 0.273 -0.018 z m -0.317 0.026 c 0.422 0.721 0.017 0.861 -0.071 1.446 0.044 -0.034 0.081 -0.066 0.132 -0.088 0.077 -0.033 0.167 -0.053 0.256 -0.053 0.089 0 0.179 0.02 0.256 0.053 0.077 0.033 0.144 0.074 0.203 0.132 0.058 0.058 0.1 0.126 0.132 0.203 0.033 0.077 0.053 0.167 0.053 0.256 0 0.089 -0.02 0.179 -0.053 0.256 -0.033 0.077 -0.074 0.144 -0.132 0.203 -0.058 0.058 -0.126 0.1 -0.203 0.132 -0.077 0.033 -0.167 0.053 -0.256 0.053 -0.089 0 -0.179 -0.02 -0.256 -0.053 c -0.077 -0.033 -0.144 -0.074 -0.203 -0.132 -0.058 -0.058 -0.1 -0.126 -0.132 -0.203 -0.033 -0.077 -0.053 -0.167 -0.053 -0.256 c 0 -0.089 0.02 -0.179 0.053 -0.256 0.013 -0.032 0.035 -0.05 0.053 -0.079 c -0.061 -0.09 -0.145 -0.163 -0.326 -0.203 0.43 0.753 -0.513 0.668 -0.423 1.323 -0.116 -0.032 -0.22 -0.245 -0.132 -0.512 -0.303 0.374 -0.189 0.692 0.026 1.014 -0.215 -0.215 -0.219 -0.103 -0.326 -0.406 0.002 0.043 0.012 0.082 0.018 0.123 -0.174 -0.294 -0.273 -0.638 -0.273 -1.01 c 0 -0.983 0.718 -1.797 1.658 -1.949 z m 0.317 1.623 c -0.089 0 -0.171 0.039 -0.229 0.097 -0.058 0.058 -0.097 0.14 -0.097 0.229 0 0.089 0.039 0.171 0.097 0.229 0.058 0.058 0.14 0.097 0.229 0.097 0.089 0 0.171 -0.039 0.229 -0.097 0.058 -0.058 0.097 -0.14 0.097 -0.229 0 -0.089 -0.039 -0.171 -0.097 -0.229 c -0.058 -0.058 -0.14 -0.097 -0.229 -0.097 z" style="fill:#353535;fill-opacity:1"/>
</svg>
